public/assets/logos/topgolf-white.svg

<svg fill="none" height="31" viewBox="0 0 30 31" width="30" xmlns="http://www.w3.org/2000/svg"><g fill="#fff"><path d="m13.9028 12.5751c-.5885-.1133-1.1839-.1835-1.7825-.2107l-.7663-.4183c.8245.0582 1.6446.1696 2.4545.3329z"/><path d="m15 4.09965c-6.80743 0-12 1.98756-12 1.98756s2.14955 12.02529 12 20.93549c9.8498-8.9102 12-20.93549 12-20.93549s-5.1926-1.98756-12-1.98756zm5.9614 11.15205-1.7414-.3018c.3176.3518.4613.6967.3835 1.0023-.007.0228-.0152.0449-.0247.0665l1.8325.9175c-.1025.1797-.2063.3594-.3132.5391l-1.9667-.9859c-.5992.3367-1.6958.4493-3.0215.3152l1.2573 2.912c.8657.0443 1.663.0152 2.3615-.0835-1.3807 2.0369-2.9651 3.9283-4.7287 5.6444-2.6545-2.571-4.6889-5.3761-6.23539-8.0344 1.25729.7251 2.84939 1.3744 4.62939 1.8382.903.236 1.8205.4126 2.7469.5277l-.9321-2.9285c-.3955-.0689-.8074-.1569-1.225-.2657-1.2276-.3196-2.3166-.7638-3.1386-1.2453l-2.82917.7302c-.08036-.1512-.15756-.3006-.23476-.4499l2.53493-.6214c-.75176-.5385-1.15105-1.0972-1.03208-1.5655.00316-.012.00822-.0234.01139-.0354l-2.73613-.4752c-.01456.0107-.02785.0221-.0424.0329-1.0966-2.5368-1.71673-4.64526-2.02236-5.84627 1.80468-.54862 5.76838-1.5579 10.50538-1.5579s8.7058 1.00801 10.506 1.55726c-.4315 1.69395-1.4895 5.19571-3.6321 9.16451-.2766-.3119-.5822-.5973-.9125-.8511z"/><path d="m18.2342 15.2447c-.1354.5328-1.1719.7505-2.5362.6063l-.4897-1.1346c.5802.0493 1.0168-.0475 1.089-.274l1.8376.3189c.1006.1696.1379.3328.0993.4834z"/><path d="m20.0117 14.5968-1.5168-.2639c-.4448-.3005-.9162-.56-1.4079-.7745l.5512-.143c.8226.3272 1.6167.722 2.3735 1.1814z"/><path d="m14.1241 13.2705c-.4929-.0588-.901-.0183-1.1004.1126l-1.9787-.3436c.4449-.3771 1.5763-.4714 2.9279-.2417z"/><path d="m14.9076 15.732c-.2266-.043-.4575-.0949-.6917-.1557-1.8774-.4891-3.3005-1.3839-3.3708-2.0806l2.1787.3791c.2379.2626.7713.5391 1.4225.7081.0348.0088.0689.017.1018.0246z"/><path d="m11.2299 12.3726c-.6942.0462-1.24974.1885-1.58955.4233l-2.38873-.4138c.79034-.3177 1.87175-.4784 3.13158-.4715z"/><path d="m15 9.30615v3.24615l.0551.0133c.6909.1797 1.3528.3885 1.9786.6176l-.5327.131c-.4911-.1899-.9922-.3525-1.501-.4879v.2006c1.0637.2904 1.9736.7087 2.5564 1.1434l-1.6351-.2835c-.2303-.1575-.5505-.3069-.9213-.4239v.2695c.3012.1285.4936.2898.4619.4094-.0424.1608-.4701.1854-.9561.0551-.4853-.131-.8448-.3664-.8024-.5265.0317-.1208.2804-.1645.6081-.124v-.9087l-.1208-.279c.0398.0082.0803.0183.1208.0272v-5.04326h.6885c1.5927 0 1.2168.58912 3.2493.58912 0 0-.7188 1.04724-1.7863 1.04724s-1.1624.09808-1.463.32715z"/></g></svg>

<svg width="30" height="31" viewBox="0 0 30 31" fill="none" xmlns="http://www.w3.org/2000/svg">
<path d="M13.9028 12.5751C13.3143 12.4618 12.7189 12.3916 12.1203 12.3644L11.354 11.9461C12.1785 12.0043 12.9986 12.1157 13.8085 12.279L13.9028 12.5751Z" fill="white"/>
<path d="M15 4.09965C8.19257 4.09965 3 6.08721 3 6.08721C3 6.08721 5.14955 18.1125 15 27.0227C24.8498 18.1125 27 6.08721 27 6.08721C27 6.08721 21.8074 4.09965 15 4.09965ZM20.9614 15.2517L19.22 14.9499C19.5376 15.3017 19.6813 15.6466 19.6035 15.9522C19.5965 15.975 19.5883 15.9971 19.5788 16.0187L21.4113 16.9362C21.3088 17.1159 21.205 17.2956 21.0981 17.4753L19.1314 16.4894C18.5322 16.8261 17.4356 16.9387 16.1099 16.8046L17.3672 19.7166C18.2329 19.7609 19.0302 19.7318 19.7287 19.6331C18.348 21.67 16.7636 23.5614 15 25.2775C12.3455 22.7065 10.3111 19.9014 8.76461 17.2431C10.0219 17.9682 11.614 18.6175 13.394 19.0813C14.297 19.3173 15.2145 19.4939 16.1409 19.609L15.2088 16.6805C14.8133 16.6116 14.4014 16.5236 13.9838 16.4148C12.7562 16.0952 11.6672 15.651 10.8452 15.1695L8.01603 15.8997C7.93567 15.7485 7.85847 15.5991 7.78127 15.4498L10.3162 14.8284C9.56444 14.2899 9.16515 13.7312 9.28412 13.2629C9.28728 13.2509 9.29234 13.2395 9.29551 13.2275L6.55938 12.7523C6.54482 12.763 6.53153 12.7744 6.51698 12.7852C5.42038 10.2484 4.80025 8.13994 4.49462 6.93893C6.2993 6.39031 10.263 5.38103 15 5.38103C19.737 5.38103 23.7058 6.38904 25.506 6.93829C25.0745 8.63224 24.0165 12.134 21.8739 16.1028C21.5973 15.7909 21.2917 15.5055 20.9614 15.2517Z" fill="white"/>
<path d="M18.2342 15.2447C18.0988 15.7775 17.0623 15.9952 15.698 15.851L15.2083 14.7164C15.7885 14.7657 16.2251 14.6689 16.2973 14.4424L18.1349 14.7613C18.2355 14.9309 18.2728 15.0941 18.2342 15.2447Z" fill="white"/>
<path d="M20.0117 14.5968L18.4949 14.3329C18.0501 14.0324 17.5787 13.7729 17.087 13.5584L17.6382 13.4154C18.4608 13.7426 19.2549 14.1374 20.0117 14.5968Z" fill="white"/>
<path d="M14.1241 13.2705C13.6312 13.2117 13.2231 13.2522 13.0237 13.3831L11.045 13.0395C11.4899 12.6624 12.6213 12.5681 13.9729 12.7978L14.1241 13.2705Z" fill="white"/>
<path d="M14.9076 15.732C14.681 15.689 14.4501 15.6371 14.2159 15.5763C12.3385 15.0872 10.9154 14.1924 10.8451 13.4957L13.0238 13.8748C13.2617 14.1374 13.7951 14.4139 14.4463 14.5829C14.4811 14.5917 14.5152 14.5999 14.5481 14.6075L14.9076 15.732Z" fill="white"/>
<path d="M11.2299 12.3726C10.5357 12.4188 9.98016 12.5611 9.64035 12.7959L7.25162 12.3821C8.04196 12.0644 9.12337 11.9037 10.3832 11.9106L11.2299 12.3726Z" fill="white"/>
<path d="M15 9.30615V12.5523L15.0551 12.5656C15.746 12.7453 16.4079 12.9541 17.0337 13.1832L16.501 13.3142C16.0099 13.1243 15.5088 12.9617 15 12.8263V13.0269C16.0637 13.3173 16.9736 13.7356 17.5564 14.1703L15.9213 13.8868C15.691 13.7293 15.3708 13.5799 15 13.4629V13.7324C15.3012 13.8609 15.4936 14.0222 15.4619 14.1418C15.4195 14.3026 14.9918 14.3272 14.5058 14.1969C14.0205 14.0659 13.661 13.8305 13.7034 13.6704C13.7351 13.5496 13.9838 13.5059 14.3115 13.5464V12.6377L14.1907 12.3587C14.2305 12.3669 14.271 12.377 14.3115 12.3859V7.34264H15C16.5927 7.34264 16.2168 7.93176 18.2493 7.93176C18.2493 7.93176 17.5305 8.979 16.463 8.979C15.3955 8.979 15.3006 9.07708 15 9.30615Z" fill="white"/>
</svg>
